X:7021
T:the Lily
O:england
M:4/4
L:1/8
K:D
dcdA B2AG |FAFD E2E2 |dcdA B2AG |FDEF D2D2 :|
|:FDAD F2FA |FDAD E2E2 |FDAD F2AF |EDEF D2D2 :|
|:dcdA B2cd |efed e2ef |gfed B2AF |EDEF D2D2:|


